lib/brands/icons/google-collections.svg

<svg xmlns="http://www.w3.org/2000/svg" fill="none" aria-hidden="true" viewBox="0 0 48 48"><g id="google-collections-Icon"><g id="Group"><path id="Vector" fill="#FFC517" fill-rule="evenodd" d="M12.2577 4C10.7636 4 9.55225 5.21079 9.55225 6.71532V44L21.2913 38.582L33.0302 44V6.71532C33.0303 5.21079 34.2416 4 35.7428 4H12.2577Z" clip-rule="evenodd"/><path id="Vector_2" fill="#EEA90F" fill-rule="evenodd" d="M38.4482 6.71532C38.4482 5.21571 37.2434 4 35.7427 4C34.2415 4 33.0303 5.21079 33.0303 6.71532V35.7937L38.4482 38.5026V6.71532Z" clip-rule="evenodd"/><path id="Vector_3" fill="white" fill-rule="evenodd" d="M26.583 21.9779H21.417V24.0712H24.3906C24.1134 25.401 22.9542 26.1645 21.417 26.1645C19.6027 26.1645 18.1411 24.7361 18.1411 22.9629C18.1411 21.1898 19.6027 19.7614 21.417 19.7614C22.1982 19.7614 22.9038 20.0323 23.4583 20.4756L25.071 18.8994C24.0882 18.0621 22.8282 17.545 21.417 17.545C18.3427 17.545 15.873 19.9585 15.873 22.9629C15.873 25.9675 18.3427 28.381 21.417 28.381C24.189 28.381 26.7091 26.4108 26.7091 22.9629C26.7091 22.6428 26.6586 22.298 26.583 21.9779V21.9779Z" clip-rule="evenodd"/></g></g></svg>

<svg xmlns="http://www.w3.org/2000/svg" fill="none" aria-hidden="true" viewBox="0 0 48 48"><path fill="#FFC517" fill-rule="evenodd" d="M12.258 4a2.707 2.707 0 0 0-2.706 2.715V44l11.74-5.418L33.03 44V6.715A2.709 2.709 0 0 1 35.743 4H12.257Z" clip-rule="evenodd"/><path fill="#EEA90F" fill-rule="evenodd" d="M38.448 6.715a2.709 2.709 0 1 0-5.418 0v29.079l5.418 2.709V6.715Z" clip-rule="evenodd"/><path fill="#fff" fill-rule="evenodd" d="M26.583 21.978h-5.166v2.093h2.974c-.278 1.33-1.437 2.093-2.974 2.093-1.814 0-3.276-1.428-3.276-3.201 0-1.773 1.462-3.202 3.276-3.202.781 0 1.487.271 2.041.715l1.613-1.577a5.593 5.593 0 0 0-3.654-1.354c-3.074 0-5.544 2.413-5.544 5.418 0 3.005 2.47 5.418 5.544 5.418 2.772 0 5.292-1.97 5.292-5.418 0-.32-.05-.665-.126-.985Z" clip-rule="evenodd"/></svg>
